epam-assets/icon-sources/18/file-file_table.svg

<svg width="18" height="18" viewBox="0 0 18 18" fill="none" xmlns="http://www.w3.org/2000/svg">
<g id="18/file-file_table">
<path id="icon" fill-rule="evenodd" clip-rule="evenodd" d="M10.5 1.5H4.5C3.67157 1.5 3 2.17157 3 3V15C3 15.8284 3.67157 16.5 4.5 16.5H13.5C14.3284 16.5 15 15.8284 15 15V6L10.5 1.5ZM7.5 14.25H5.25V12.75H7.5V14.25ZM7.5 12H5.25V10.5H7.5V12ZM7.5 9.75H5.25V8.25H7.5V9.75ZM10.5 14.25H8.25V12.75H10.5V14.25ZM10.5 12H8.25V10.5H10.5V12ZM10.5 9.75H8.25V8.25H10.5V9.75ZM9.75 6.75V2.625L13.875 6.75H9.75Z" fill="#6C6F80"/>
</g>
</svg>

<svg xmlns="http://www.w3.org/2000/svg" width="18" height="18" fill="none" viewBox="0 0 18 18">
  <path fill="#6C6F80" fill-rule="evenodd" d="M10.5 1.5h-6A1.5 1.5 0 0 0 3 3v12a1.5 1.5 0 0 0 1.5 1.5h9A1.5 1.5 0 0 0 15 15V6l-4.5-4.5Zm-3 12.75H5.25v-1.5H7.5v1.5Zm0-2.25H5.25v-1.5H7.5V12Zm0-2.25H5.25v-1.5H7.5v1.5Zm3 4.5H8.25v-1.5h2.25v1.5Zm0-2.25H8.25v-1.5h2.25V12Zm0-2.25H8.25v-1.5h2.25v1.5Zm-.75-3V2.625l4.125 4.125H9.75Z" clip-rule="evenodd"/>
</svg>
